src/amo/components/Icon/img/permissions/settings.svg

<svg xmlns="http://www.w3.org/2000/svg" xmlns:xlink="http://www.w3.org/1999/xlink" width="24" height="24" viewBox="0 0 24 24">
  <defs>
    <path id="settings-a" d="M22.5,10.5 L19.35,10.5 C19.1565842,9.56102069 18.7837667,8.66819421 18.252,7.8705 L20.487,5.6355 C21.0554584,5.04693167 21.0473286,4.11137283 20.4687279,3.53277214 C19.8901272,2.95417144 18.9545684,2.94604169 18.366,3.5145 L16.131,5.7495 C15.3329502,5.21706084 14.4395982,4.8437273 13.5,4.65 L13.5,1.5 C13.5,0.671572875 12.8284271,5.07265313e-17 12,0 C11.1715729,-5.07265313e-17 10.5,0.671572875 10.5,1.5 L10.5,4.65 C9.56103184,4.84345197 8.66821206,5.21626662 7.87050001,5.748 L5.63550001,3.513 C5.04938782,2.92730204 4.09944799,2.92763783 3.51375002,3.51375002 C2.92805205,4.0998622 2.92838783,5.04980202 3.51450001,5.6355 L5.74950001,7.8705 C5.21720442,8.6680797 4.84387483,9.56091293 4.65000001,10.5 L1.5,10.5 C0.671572894,10.5 4.47034837e-08,11.1715729 4.47034836e-08,12 C4.47034835e-08,12.8284271 0.671572894,13.5 1.5,13.5 L4.65000001,13.5 C4.8439049,14.444731 5.21934844,15.3428409 5.75550001,16.1445 C5.73450001,16.164 5.70750001,16.17 5.68800001,16.1895 L3.51300001,18.3645 C3.12306513,18.7411117 2.96668111,19.2988168 3.10395427,19.823261 C3.24122743,20.3477051 3.65079487,20.7572726 4.17523902,20.8945457 C4.69968317,21.0318189 5.2573883,20.8754349 5.63400001,20.4855 L7.80900001,18.3105 C7.82850001,18.291 7.83600001,18.264 7.85400001,18.243 C8.65599576,18.7798585 9.55463825,19.1558212 10.5,19.35 L10.5,22.5 C10.5,23.3284271 11.1715729,24 12,24 C12.8284271,24 13.5,23.3284271 13.5,22.5 L13.5,19.35 C14.4389682,19.156548 15.331788,18.7837334 16.1295,18.252 L18.3645,20.487 C18.9530684,21.0554583 19.8886272,21.0473286 20.4672279,20.4687279 C21.0458286,19.8901272 21.0539584,18.9545683 20.4855,18.366 L18.2505,16.131 C18.7829725,15.332968 19.1563089,14.4396093 19.35,13.5 L22.5,13.5 C23.3284272,13.5 24,12.8284271 24,12 C24,11.1715729 23.3284272,10.5 22.5,10.5 Z M7.5,12 C7.5,9.51471863 9.51471863,7.5 12,7.5 C14.4852814,7.5 16.5,9.51471863 16.5,12 C16.5,14.4852814 14.4852814,16.5 12,16.5 C9.51471863,16.5 7.5,14.4852814 7.5,12 Z"/>
  </defs>
  <g fill="none" fill-rule="evenodd">
    <rect width="24" height="24"/>
    <mask id="settings-b" fill="#fff">
      <use xlink:href="#settings-a"/>
    </mask>
    <g fill="#0F1126" mask="url(#settings-b)">
      <rect width="24" height="24"/>
    </g>
  </g>
</svg>

<svg xmlns="http://www.w3.org/2000/svg" xmlns:xlink="http://www.w3.org/1999/xlink" width="24" height="24"><defs><path id="a" d="M22.5 10.5h-3.15a7.45 7.45 0 0 0-1.098-2.63l2.235-2.234a1.5 1.5 0 0 0-2.121-2.122L16.131 5.75a7.452 7.452 0 0 0-2.631-1.1V1.5a1.5 1.5 0 0 0-3 0v3.15a7.452 7.452 0 0 0-2.63 1.098L5.637 3.513a1.5 1.5 0 0 0-2.121 2.123L5.75 7.87a7.45 7.45 0 0 0-1.1 2.63H1.5a1.5 1.5 0 0 0 0 3h3.15c.194.945.57 1.843 1.106 2.645-.021.019-.048.025-.068.044l-2.175 2.175a1.5 1.5 0 1 0 2.121 2.121l2.175-2.174c.02-.02.027-.047.045-.068.802.537 1.7.913 2.646 1.107v3.15a1.5 1.5 0 0 0 3 0v-3.15a7.452 7.452 0 0 0 2.63-1.098l2.235 2.235a1.5 1.5 0 0 0 2.12-2.121l-2.235-2.235a7.45 7.45 0 0 0 1.1-2.631h3.15a1.5 1.5 0 1 0 0-3ZM7.5 12a4.5 4.5 0 1 1 9 0 4.5 4.5 0 0 1-9 0Z"/></defs><g fill="none" fill-rule="evenodd"><path d="M0 0h24v24H0z"/><mask id="b" fill="#fff"><use xlink:href="#a"/></mask><g fill="#0F1126" mask="url(#b)"><path d="M0 0h24v24H0z"/></g></g></svg>
